X:308
T:Repeal of the Union
Z: id:dc-reel-285
M:C
L:1/8
K:D Mixolydian
B|ADFD A3G|E2cE dEcE|ADFD A3G|E2cE EDD:|!
B|Adde fded|ABcA dBcA|Adde fdcA|GEcE EDDB|!
Adde fded|ABcd efge|afge d2ed|cAGE EDD|]!

